presets/warm.cube
TITLE "Warm"
LUT_3D_SIZE 2
0.0 0.0 0.0
1.0 0.0 0.0
0.0 1.0 0.0
1.0 1.0 0.0
0.0 0.0 1.0
1.0 0.0 1.0
0.0 1.0 1.0
1.0 0.85 0.75
